X:1
T: An Early Frost
N:
C:Tune: Midwinter Blossom
S:
A:
O:
R:
M:3/4
K:G
I:speed 120
%W:                 A
% voice 1 (1 lines, 15 notes)
K:G
M:3/4
L:1/16
D4 |D4 G4 G2 B2 |A8 B4 |c4 c2 B2 c2 e2 |d4 e4 f4 |
%W:
% voice 1 (1 lines, 12 notes)
g6 f2 e4 |d6 B2 A4 |B4 c4 G4 |G4 F4 D4 |
%W:
% voice 1 (1 lines, 14 notes)
D4 G4 G2 B2 |A8 B4 |c4 c2 B2 c2 e2 |d4 B4 A4 |
%W:
% voice 1 (1 lines, 14 notes)
B6 A2 G2 F2 |A6 G2 F2 E2 |D4 B,4 A,4/3 |B,4/3 A,4/3 G,8 |||
%W:         B
% voice 1 (1 lines, 15 notes)
B4 |c4 c2 B2 c2 e2 |d4 B6 A2 |B4 G4 G4 |G4 F4 D4 |
%W:
% voice 1 (1 lines, 17 notes)
c4 c2 B2 c2 e2 |d4 B4 A4 |B4 e6 f2 |g2 f2 e2 d2 c2 B2 |
%W:
% voice 1 (1 lines, 14 notes)
c4 c2 B2 c2 e2 |d4 B4 A4 |B4 G4 G4 |G4 F4 D4 |
%W:
% voice 1 (1 lines, 14 notes)
C6 D2 E2 G2 |F6 G2 A4 |B2 G2 E2 A2 G2 F2 |G8 ||
